X:870
T: Over the Hills and Far Away
T: De Bharr na gCnoc is in Imig\'ein
S: B.Breathnach:"Ceol Rince na hEireann" IV/82
Z: B.Black
L: 1/8
N: N.B. No repeats
M: 2/4
Q: 280
R: polka
K: G
Bd/B/ GB|BA A2|Ac/A/ FA|AG G2|
Bd/B/ GB|BA A2|Ac/A/ FA|AG G2 ||
B2 AG|FG AB|c2 BA|GA Bc|
d2 g2|fe e2|dd/B/ cA|AG G2 ||
